!!!COM: Music21
!!!OTL: hornpipe_Monmouth
!!!OMV: hornpipe_Monmouth
**kern
*clefG2
*k[f#]
*G:
*M4/4
=1
4d
=
4g
8.gL
16aJk
8.bL
16gJk
8.bL
16ddJk
=
8.ccL
16aJk
8.bL
16gJk
8.gL
16f#Jk
8.eL
16dJk
=
8.eL
16f#Jk
8.gL
16eJk
8.dL
16gJk
8.bL
16ddJk
=
16ccLL
16bJ
8aJ
8.bL
16gJk
8.gL
16f#Jk
8.eL
16dJk
!!linebreak:original
=
4g
8.gL
16aJk
8.bL
16gJk
8.bL
16ddJk
=
8.ccL
16aJk
8.bL
16gJk
8.gL
16f#Jk
8.eL
16dJk
=
8.eL
16gJk
8.f#L
16aJk
8.gL
16bJk
8.aL
16ccJk
=
8.bL
16gJk
8.gL
16f#Jk
4g
4ryy
=||
*M4/4
4d
!!linebreak:original
=
4g
8.gL
16aJk
8.bL
16gJk
8.bL
16ddJk
=
8.ccL
16aJk
8.bL
16gJk
8.gL
16f#Jk
8.eL
16dJk
=
8.eL
16f#Jk
8.gL
16eJk
8.dL
16gJk
8.bL
16ddJk
=
16ccLL
16bJ
8aJ
8.bL
16gJk
8.gL
16f#Jk
8.eL
16dJk
!!linebreak:original
=
4g
8.gL
16aJk
8.bL
16gJk
8.bL
16ddJk
=
8.ccL
16aJk
8.bL
16gJk
8.gL
16f#Jk
8.eL
16dJk
=
8.eL
16gJk
8.f#L
16aJk
8.gL
16bJk
8.aL
16ccJk
=
8.bL
16gJk
8.gL
16f#Jk
4g
4ryy
=
8.bL
16ccJk
2.ryy
!!linebreak:original
=
8.ddL
16bJk
8.ddL
16bJk
8.ddL
16bJk
8.ccL
16eeJk
=
8.ddL
16bJk
8.ddL
16bJk
8.ddL
16bJk
8.aL
16gJk
=
8.ddL
16bJk
8.ddL
16bJk
8.ddL
16bJk
8.ccL
16eeJk
=
8.ddL
16bJk
8.ddL
16bJk
4gg
8.bL
16ccJk
!!linebreak:original
=
8.ddL
16bJk
8.ddL
16bJk
8.ddL
16bJk
8.ccL
16eeJk
=
8.ddL
16bJk
8.ddL
16bJk
8.ddL
16bJk
8.aL
16gJk
=
8.f#L
16gJk
8.aL
16bJk
8.ccL
16bJk
8.aL
16gJk
=
8.f#L
16gJk
8.aL
16bJk
4cc
4ryy
=||
*M4/4
4d
!!linebreak:original
=
4g
8.gL
16aJk
8.bL
16gJk
8.bL
16ddJk
=
8.ccL
16aJk
8.bL
16gJk
8.gL
16f#Jk
8.eL
16dJk
=
8.eL
16f#Jk
8.gL
16eJk
8.dL
16gJk
8.bL
16ddJk
=
16ccLL
16bJ
8aJ
8.bL
16gJk
8.gL
16f#Jk
8.eL
16dJk
!!linebreak:original
=
4g
8.gL
16aJk
8.bL
16gJk
8.bL
16ddJk
=
8.ccL
16aJk
8.bL
16gJk
8.gL
16f#Jk
8.eL
16dJk
=
8.eL
16gJk
8.f#L
16aJk
8.gL
16bJk
8.aL
16ccJk
=
8.bL
16gJk
8.gL
16f#Jk
4g
4ryy
=||
*M4/4
4d
!!linebreak:original
=
4g
8.gL
16aJk
8.bL
16gJk
8.bL
16ddJk
=
8.ccL
16aJk
8.bL
16gJk
8.gL
16f#Jk
8.eL
16dJk
=
8.eL
16f#Jk
8.gL
16eJk
8.dL
16gJk
8.bL
16ddJk
=
16ccLL
16bJ
8aJ
8.bL
16gJk
8.gL
16f#Jk
8.eL
16dJk
!!linebreak:original
=
4g
8.gL
16aJk
8.bL
16gJk
8.bL
16ddJk
=
8.ccL
16aJk
8.bL
16gJk
8.gL
16f#Jk
8.eL
16dJk
=
8.eL
16gJk
8.f#L
16aJk
8.gL
16bJk
8.aL
16ccJk
=
8.bL
16gJk
8.gL
16f#Jk
4g
4ryy
=
8.bL
16ccJk
2.ryy
!!pagebreak:original
=
8.ddL
16bJk
8.ddL
16bJk
8.ddL
16bJk
8.ccL
16eeJk
=
8.ddL
16bJk
8.ddL
16bJk
8.ddL
16bJk
8.aL
16gJk
=
8.ddL
16bJk
8.ddL
16bJk
8.ddL
16bJk
8.ccL
16eeJk
=
8.ddL
16bJk
8.ddL
16bJk
4gg
8.bL
16ccJk
!!linebreak:original
=
8.ddL
16bJk
8.ddL
16bJk
8.ddL
16bJk
8.ccL
16eeJk
=
8.ddL
16bJk
8.ddL
16bJk
8.ddL
16bJk
8.aL
16gJk
=
8.f#L
16gJk
8.aL
16bJk
8.ccL
16bJk
8.aL
16gJk
=
8.f#L
16gJk
8.aL
16bJk
4cc
4ryy
=||
*-
